source/images/icons/icon-facebook.svg

<?xml version="1.0" encoding="utf-8"?><svg fill="#000000" width="800px" height="800px" viewBox="0 0 24 24" xmlns="http://www.w3.org/2000/svg"><path d="M12 2.03998C6.5 2.03998 2 6.52998 2 12.06C2 17.06 5.66 21.21 10.44 21.96V14.96H7.9V12.06H10.44V9.84998C10.44 7.33998 11.93 5.95998 14.22 5.95998C15.31 5.95998 16.45 6.14998 16.45 6.14998V8.61998H15.19C13.95 8.61998 13.56 9.38998 13.56 10.18V12.06H16.34L15.89 14.96H13.56V21.96C15.9164 21.5878 18.0622 20.3855 19.6099 18.57C21.1576 16.7546 22.0054 14.4456 22 12.06C22 6.52998 17.5 2.03998 12 2.03998Z"/></svg>

<svg viewBox="0 0 24 24" xmlns="http://www.w3.org/2000/svg"><path d="M12 2.04a10.03 10.03 0 0 0-1.56 19.92v-7h-2.54v-2.9h2.54v-2.21c0-2.51 1.49-3.89 3.78-3.89 1.09 0 2.23.19 2.23.19v2.47h-1.26c-1.24 0-1.63.77-1.63 1.56v1.88h2.78l-.45 2.9h-2.33v7a10 10 0 0 0 8.44-9.9c0-5.53-4.5-10.02-10-10.02Z"/></svg>
